svgs/light/envelopes-bulk.svg

<svg xmlns="http://www.w3.org/2000/svg" viewBox="0 0 640 512"><!--! Font Awesome Pro 6.6.0 by @fontawesome - https://fontawesome.com License - https://fontawesome.com/license (Commercial License) Copyright 2024 Fonticons, Inc. --><path d="M112 32l288 0c8.8 0 16 7.2 16 16l0 16 32 0 0-16c0-26.5-21.5-48-48-48L112 0C85.5 0 64 21.5 64 48l0 144 32 0L96 48c0-8.8 7.2-16 16-16zM224 144c0-8.8 7.2-16 16-16l352 0c8.8 0 16 7.2 16 16l0 224c0 8.8-7.2 16-16 16l-176 0 0 32 176 0c26.5 0 48-21.5 48-48l0-224c0-26.5-21.5-48-48-48L240 96c-26.5 0-48 21.5-48 48l0 48 32 0 0-48zM48 256l288 0c8.8 0 16 7.2 16 16l0 5L196.9 391.9c-1.4 1-3.1 1.6-4.9 1.6s-3.5-.6-4.9-1.6L32 277l0-5c0-8.8 7.2-16 16-16zM32 464l0-147.2L168 417.6c6.9 5.1 15.3 7.9 24 7.9s17-2.8 24-7.9L352 316.8 352 464c0 8.8-7.2 16-16 16L48 480c-8.8 0-16-7.2-16-16zM48 224c-26.5 0-48 21.5-48 48L0 464c0 26.5 21.5 48 48 48l288 0c26.5 0 48-21.5 48-48l0-192c0-26.5-21.5-48-48-48L48 224zm448-64c-8.8 0-16 7.2-16 16l0 64c0 8.8 7.2 16 16 16l64 0c8.8 0 16-7.2 16-16l0-64c0-8.8-7.2-16-16-16l-64 0zm16 64l0-32 32 0 0 32-32 0z"/></svg>

<svg xmlns="http://www.w3.org/2000/svg" viewBox="0 0 640 512"><!--! Font Awesome Pro 6.4.2 by @fontawesome - https://fontawesome.com License - https://fontawesome.com/license (Commercial License) Copyright 2023 Fonticons, Inc. --><path d="M112 32H400c8.8 0 16 7.2 16 16V64h32V48c0-26.5-21.5-48-48-48H112C85.5 0 64 21.5 64 48V192H96V48c0-8.8 7.2-16 16-16zM224 144c0-8.8 7.2-16 16-16H592c8.8 0 16 7.2 16 16V368c0 8.8-7.2 16-16 16H416v32H592c26.5 0 48-21.5 48-48V144c0-26.5-21.5-48-48-48H240c-26.5 0-48 21.5-48 48v48h32V144zM48 256H336c8.8 0 16 7.2 16 16v5L196.9 391.9c-1.4 1-3.1 1.6-4.9 1.6s-3.5-.6-4.9-1.6L32 277v-5c0-8.8 7.2-16 16-16zM32 464V316.8L168 417.6c6.9 5.1 15.3 7.9 24 7.9s17-2.8 24-7.9L352 316.8V464c0 8.8-7.2 16-16 16H48c-8.8 0-16-7.2-16-16zM48 224c-26.5 0-48 21.5-48 48V464c0 26.5 21.5 48 48 48H336c26.5 0 48-21.5 48-48V272c0-26.5-21.5-48-48-48H48zm448-64c-8.8 0-16 7.2-16 16v64c0 8.8 7.2 16 16 16h64c8.8 0 16-7.2 16-16V176c0-8.8-7.2-16-16-16H496zm16 64V192h32v32H512z"/></svg>
